X: 2903
T: Jack's Alive
T: Dusty Bob's Jig
O: 1750
R: jig
B: RSCDS 29-3
B: Rutherford "Choice Collection of Sixty of the Most Celebrated Country Dances", London, 1750, p.17
B: William Vickers' 1770 music manuscript (Northumberland)
Z: 1997 by John Chambers <jc:trillian.mit.edu>
M: 6/8
L: 1/8
K: G
D \
| "G"G2G GAB | "D7"A2A ABc | "G"dBd "D7"cAc | "G"BGB "D7"AFD \
| "G"G2G GAB | "D7"A2A ABc | "G"BGB "D7"AFA |1 "G"GDB, G,B, :|2 "G"G3 G2 |]
f \
| "G"g2g gag | "D"f2f fgf | "C"e2e efg | "D7"afd def \
| "Em"g2g gag  | "D"f2f fgf | "A7"efe efg | "D"a2z "D7"d2 ||
z \
| "G"gbg gbg | "D"faf faf | "Em"efe "A7"efg | "D7"afd def \
| "G"g[bd][d'B] "Em"Bcd | "Am"ecA "D7"ABc | "G"dcB "D7"cBA | "G"G3 G2 |]
